assets/icons/svg/camera.svg

<svg width="16" height="16" viewBox="0 0 16 16" fill="none" xmlns="http://www.w3.org/2000/svg">
<path fill-rule="evenodd" clip-rule="evenodd" d="M8 5.62538C6.34287 5.62538 5 6.96826 5 8.62538C5 10.2821 6.34287 11.6254 8 11.6254C9.65675 11.6254 11 10.2821 11 8.62538C11 6.96863 9.65675 5.62538 8 5.62538ZM9.70813 10.0898C8.89963 11.0333 7.4795 11.1424 6.536 10.3335C5.59212 9.52501 5.48338 8.10451 6.29225 7.16138C7.10038 6.21751 8.52088 6.10876 9.46438 6.91763C10.4075 7.72576 10.5166 9.14663 9.70813 10.0898Z" fill="#333333"/>
<path fill-rule="evenodd" clip-rule="evenodd" d="M8 7.12538C7.17162 7.12538 6.50038 7.79701 6.5 8.62501V8.62576C6.5 8.72888 6.584 8.81326 6.6875 8.81326C6.791 8.81326 6.875 8.72888 6.875 8.62576V8.62501C6.87538 8.00401 7.37863 7.50038 8 7.50038C8.1035 7.50038 8.1875 7.41638 8.1875 7.31288C8.1875 7.20938 8.1035 7.12538 8 7.12538Z" fill="#333333"/>
<path fill-rule="evenodd" clip-rule="evenodd" d="M13.0595 5.26575L11.4343 4.99463L10.9194 3.70688C10.7472 3.2775 10.337 3 9.875 3H6.125C5.663 3 5.25275 3.2775 5.08025 3.70725L4.56575 4.99463L2.94088 5.26575C2.39563 5.35612 2 5.82262 2 6.375V12C2 12.6203 2.50475 13.125 3.125 13.125H12.875C13.4953 13.125 14 12.6203 14 12V6.375C14 5.82262 13.6044 5.35612 13.0595 5.26575ZM13.25 12C13.25 12.2074 13.0824 12.375 12.875 12.375H3.125C2.91763 12.375 2.75 12.2074 2.75 12V6.375C2.75 6.19163 2.88275 6.03525 3.0635 6.00525L5.105 5.66513L5.77663 3.98588C5.834 3.84375 5.97162 3.75 6.125 3.75H9.875C10.028 3.75 10.1656 3.84338 10.223 3.98588L10.8946 5.66513L12.9365 6.00525C13.1172 6.03525 13.25 6.19163 13.25 6.375V12Z" fill="#333333"/>
</svg>

<svg xmlns="http://www.w3.org/2000/svg" width="16" height="16" viewBox="0 0 16 16">
  <path d="M8 5.625a3 3 0 1 0 0 6 3 3 0 0 0 0-6Zm1.708 4.465a2.25 2.25 0 1 1-3.416-2.927 2.25 2.25 0 0 1 3.416 2.927Z"/>
  <path d="M8 7.125a1.5 1.5 0 0 0-1.5 1.5.188.188 0 0 0 .375 0C6.875 8.004 7.379 7.5 8 7.5a.188.188 0 0 0 0-.375Z"/>
  <path d="m13.06 5.266-1.626-.271-.515-1.288A1.12 1.12 0 0 0 9.875 3h-3.75c-.462 0-.872.277-1.045.707l-.514 1.288-1.625.27A1.12 1.12 0 0 0 2 6.376V12c0 .62.505 1.125 1.125 1.125h9.75c.62 0 1.125-.505 1.125-1.125V6.375a1.12 1.12 0 0 0-.94-1.11ZM13.25 12a.375.375 0 0 1-.375.375h-9.75A.375.375 0 0 1 2.75 12V6.375c0-.183.133-.34.313-.37l2.042-.34.672-1.68a.376.376 0 0 1 .348-.235h3.75c.153 0 .29.093.348.236l.672 1.68 2.042.34c.18.03.313.186.313.369V12Z"/>
</svg>
